website/public/Images/logos/mysql_white.svg

<svg width="32" height="28" viewBox="0 0 32 28" fill="none" xmlns="http://www.w3.org/2000/svg">
<g clip-path="url(#clip0)">
<path d="M29.0624 19.9408C27.4053 19.9045 26.1224 20.0484 25.0455 20.4412C24.7346 20.5482 24.2403 20.5482 24.1971 20.8871C24.365 21.0304 24.3844 21.2617 24.5301 21.4596C24.7784 21.8166 25.2113 22.2968 25.6064 22.5473C26.0403 22.834 26.4759 23.1179 26.9326 23.3678C27.7378 23.7974 28.6506 24.0474 29.4353 24.4756C29.8926 24.7245 30.347 25.0466 30.8048 25.3147C31.0298 25.4576 31.1739 25.6894 31.4659 25.7788V25.7243C31.3196 25.5637 31.2781 25.3315 31.1345 25.1527L30.5127 24.6357C29.912 23.9398 29.1655 23.3324 28.3602 22.8335C27.6974 22.4397 26.2476 21.9045 25.9788 21.246L25.9367 21.2096C26.3923 21.1728 26.9326 21.0304 27.3654 20.921C28.0698 20.7609 28.7121 20.7972 29.4348 20.6371C29.7673 20.5654 30.0971 20.4756 30.4307 20.3872V20.2261C30.0561 19.9045 29.7889 19.4773 29.3949 19.1733C28.3408 18.3882 27.1792 17.6202 25.9788 16.9774C25.336 16.6195 24.5091 16.3891 23.8247 16.0847C23.578 15.9772 23.1624 15.9241 23.0172 15.7454C22.6459 15.3526 22.4369 14.8355 22.1676 14.3705C21.5691 13.3894 20.9877 12.3008 20.4712 11.2632C20.0977 10.5674 19.8705 9.87258 19.4149 9.22886C17.2812 6.19423 14.9641 4.35626 11.4029 2.55221C10.6375 2.17659 9.72698 2.01649 8.75437 1.8196L7.20095 1.74887C6.86954 1.62367 6.53758 1.28388 6.24829 1.12331C5.06674 0.481022 2.02475 -0.91108 1.15577 0.926897C0.59603 2.08865 1.98374 3.23082 2.46035 3.82006C2.81226 4.22914 3.26837 4.69461 3.51443 5.15912C3.66019 5.46258 3.7012 5.78468 3.84695 6.10535C4.17836 6.891 4.48816 7.76507 4.92375 8.49816C5.15098 8.87187 5.3987 9.2647 5.6891 9.60304C5.85536 9.80089 6.14465 9.88835 6.20783 10.2109C5.91909 10.5665 5.89637 11.1032 5.73067 11.5495C4.98583 13.5667 5.27678 16.0656 6.33252 17.548C6.66283 17.9944 7.4509 18.9769 8.50498 18.6003C9.43825 18.2792 9.23153 17.2618 9.49976 16.3695C9.56128 16.154 9.52082 16.0125 9.64496 15.8711V15.906C9.9337 16.4054 10.2252 16.8866 10.4929 17.3874C11.1352 18.2615 12.2536 19.1724 13.1852 19.7779C13.6812 20.1009 14.0741 20.6534 14.6954 20.8507V20.7972H14.6544C14.5286 20.6371 14.3446 20.5654 14.1794 20.4412C13.8059 20.1196 13.3924 19.7267 13.1026 19.3702C12.2347 18.37 11.4666 17.2627 10.7849 16.1201C10.4513 15.5657 10.1637 14.9597 9.89491 14.4063C9.76966 14.1927 9.76966 13.8706 9.56183 13.7631C9.25037 14.1555 8.79649 14.4952 8.56927 14.976C8.17523 15.7449 8.13422 16.6907 7.98792 17.6742L7.90645 17.7086C7.24695 17.5657 7.01751 16.9774 6.76702 16.478C6.14687 15.2097 6.04268 13.1739 6.58081 11.7106C6.7249 11.3364 7.34837 10.1579 7.09953 9.80137C6.97484 9.45968 6.5603 9.26517 6.33308 8.99612C6.06596 8.65777 5.77334 8.22958 5.58713 7.85396C5.09057 6.85468 4.84063 5.74741 4.30583 4.74861C4.05588 4.28314 3.62195 3.80142 3.27059 3.37275C2.876 2.89104 2.44206 2.55173 2.13005 1.98065C2.02697 1.78424 1.88232 1.46309 2.04803 1.24947C2.08848 1.10611 2.17272 1.05258 2.33787 1.01674C2.6061 0.821282 3.37256 1.06979 3.64134 1.17731C4.40891 1.44493 5.05067 1.69487 5.69132 2.06954C5.98116 2.24875 6.29207 2.58805 6.66394 2.67742H7.09953C7.76069 2.80167 8.50609 2.71183 9.12845 2.87336C10.2252 3.1773 11.2189 3.62317 12.11 4.10441C14.8217 5.58731 17.0579 7.69434 18.5675 10.2109C18.8153 10.621 18.9206 10.9966 19.1467 11.4243C19.5828 12.2998 20.1221 13.1925 20.5549 14.0494C20.9899 14.8881 21.4045 15.7445 22.0257 16.4412C22.3355 16.8159 23.5803 17.0123 24.1383 17.2087C24.5512 17.3688 25.1941 17.5112 25.5665 17.7076C26.2709 18.0818 26.9725 18.5115 27.6348 18.9229C27.9645 19.137 29.0009 19.5834 29.0624 19.9408ZM7.94413 4.42651C7.65831 4.42395 7.37336 4.45416 7.09677 4.51635V4.55219H7.13667C7.30348 4.8375 7.59332 5.03534 7.80004 5.28433C7.96685 5.57058 8.1115 5.85445 8.27499 6.14023L8.31489 6.10487C8.60695 5.92661 8.75215 5.64083 8.75215 5.21216C8.62635 5.086 8.60695 4.9627 8.50221 4.8375C8.38028 4.65876 8.1115 4.56988 7.94413 4.42651Z" fill="white"/>
</g>
<defs>
<clipPath id="clip0">
<rect width="30.6667" height="28" fill="white" transform="translate(0.452393)"/>
</clipPath>
</defs>
</svg>

<svg xmlns="http://www.w3.org/2000/svg" width="32" height="28" fill="none" xmlns:v="https://vecta.io/nano"><g clip-path="url(#A)"><path d="M29.062 19.941c-1.657-.036-2.94.108-4.017.5-.311.107-.805.107-.848.446.168.143.187.375.333.572.248.357.681.837 1.076 1.088l1.326.82c.805.43 1.718.68 2.503 1.108.457.249.912.571 1.369.839.225.143.369.375.661.464v-.055c-.146-.161-.188-.393-.331-.572l-.622-.517c-.601-.696-1.347-1.303-2.152-1.802-.663-.394-2.113-.929-2.381-1.588l-.042-.036c.456-.037.996-.179 1.429-.289.704-.16 1.347-.124 2.069-.284l.996-.25v-.161c-.375-.322-.642-.749-1.036-1.053-1.054-.785-2.216-1.553-3.416-2.196-.643-.358-1.47-.588-2.154-.893-.247-.108-.662-.161-.808-.339-.371-.393-.58-.91-.85-1.375l-1.696-3.107c-.373-.696-.601-1.391-1.056-2.034-2.134-3.035-4.451-4.873-8.012-6.677-.765-.376-1.676-.536-2.649-.733l-1.553-.071c-.331-.125-.663-.465-.953-.626C5.067.481 2.025-.911 1.156.927.596 2.089 1.984 3.231 2.46 3.82c.352.409.808.875 1.054 1.339.146.303.187.626.333.946.331.786.641 1.66 1.077 2.393.227.374.475.767.765 1.105.166.198.456.285.519.608-.289.356-.311.892-.477 1.339-.745 2.017-.454 4.516.602 5.998.33.446 1.118 1.429 2.172 1.052.933-.321.727-1.338.995-2.231.062-.215.021-.357.145-.498v.035l.848 1.481c.642.874 1.761 1.785 2.692 2.39.496.323.889.876 1.51 1.073v-.053h-.041c-.126-.16-.31-.232-.475-.356-.373-.322-.787-.714-1.077-1.071-.868-1-1.636-2.108-2.318-3.25-.334-.554-.621-1.16-.89-1.714-.125-.214-.125-.536-.333-.643-.311.392-.765.732-.993 1.213-.394.769-.435 1.715-.581 2.698l-.081.034c-.66-.143-.889-.731-1.139-1.231-.62-1.268-.724-3.304-.186-4.767.144-.374.768-1.553.519-1.909-.125-.342-.539-.536-.766-.805-.267-.338-.56-.767-.746-1.142-.497-.999-.747-2.107-1.281-3.105-.25-.465-.684-.947-1.035-1.376-.395-.482-.829-.821-1.141-1.392-.103-.196-.248-.518-.082-.731.04-.143.125-.197.29-.233.268-.195 1.035.053 1.303.161.768.268 1.409.518 2.05.892.29.179.601.519.973.608H7.1c.661.124 1.407.034 2.029.196 1.097.304 2.09.75 2.982 1.231 2.712 1.483 4.948 3.59 6.458 6.106.248.41.353.786.579 1.213.436.875.975 1.768 1.408 2.625.435.839.85 1.695 1.471 2.392.31.375 1.555.571 2.113.768.413.16 1.056.302 1.428.499.704.374 1.406.804 2.068 1.215.33.214 1.366.661 1.428 1.018zM7.944 4.427c-.286-.003-.571.028-.847.09v.036h.04c.167.285.457.483.663.732.167.286.311.57.475.856l.04-.035c.292-.178.437-.464.437-.893-.126-.126-.145-.249-.25-.375-.122-.179-.391-.268-.558-.411z" fill="#fff"/></g><defs><clipPath id="A"><path fill="#fff" transform="translate(.452)" d="M0 0h30.667v28H0z"/></clipPath></defs></svg>
